X:1
T:Maulgré moy vis
T:Claudin de Sermisy
T:Source : Premier livre contenant 31 chansons à 4, eslevées de plusieurs livres---Paris---P.Attaignant---1535. Editor : André Vierendeels (27/04/18) Notes : Original clefs : C1, C3, C3, F3 Original note values have been halved Editorial accidentals above the staff Square bracket indicates ligature
T:Maulgré moy vis
T:©
T:©
T:©
C:Claudin de Sermisy
Z:©
%%score [ 1 2 3 4 ]
L:1/8
Q:1/4=120
M:2/2
K:F
V:1 treble nm="Soprano" snm="S"
V:2 treble nm="Alto" snm="A"
V:3 treble-8 nm="Tenor" snm="T"
V:4 bass nm="Bass" snm="B"
V:1
 F8 | F4 F4 | F4 z2 A2 | A2 A2 G2 G2 | EDEF GABG | A3 G FE G2- | G2 F4 E2 | F4 z4 | F8 | F4 F4 | %10
w: Maul-|gré moy|vis et|en vi- vant ie|meurs, _ _ _ _ _ _ _|_ _ _ _ _|||de|iour en|
 F4 z2 A2 | A2 A2 G2 G2 | EDEF GABG | A3 G FE G2- | G2 F4 E2 | F4 z4 | z2 F2 G4 | A4 B4- | %18
w: iour ie|chan- ge mes dou-|leurs, _ _ _ _ _ _ _|_ _ _ _ _|||tant que|vi- vant|
 B2 B2 A2 F2 | G3 A BG A2- | AG c4 B2 | c4 z4 | G8 | F4 F4 | E4 z2 E2 | F2 F2 G2 G2 | A3 G AF B2- | %27
w: _ trop lon- gue-|ment _ _ _ ma|_ _ vi- *|e,|tant|que vi-|vant trop|lon- gue- ment ma|vi- * * * *|
 BA A3 G/F/ G2 | !fermata!A8 |: F8 | F4 F4 | F4 z2 A2 | A2 A2 G2 G2 | EDEF GABG | A3 G FE G2- | %35
w: |e,|ain-|si me|tiens en|pei- ne et lan-|||
 G2 F4 E2 | F8 :| %37
w: |gueur.|
V:2
 A,8 | A,4 B,4 | A,4 z2 F2 | F2 F2 D2 B,2 | C4 D4 | z2 C4 D2- | D2 B,2 C4 | C4 z4 | A,8 | A,4 B,4 | %10
w: Maul-|gré moy|vis et|en vi- vant ie|_ meurs,|ie _|_ _ _|meurs,|de|iour en|
 A,4 z2 F2 | F2 F2 D2 B,2 | C4 D4 | z2 C4 D2- | D2 B,2 C4 | C2 D2 E2 F2- | FEDC B,4 | C2 D4 CB, | %18
w: iour ie|chan- ge mes _|dou- leurs,|mes dou-|* * leurs,|tant que vi- vant|_ _ _ _ _|trop lon- * *|
 C2 D2 C2 A,2 | C4 B,2 C2- | CDEF G4 |"^-natural" E4 z4 | E8 | D4 D4 | C4 z2 C2 | C2 D2 D2 E2 | %26
w: * * * gue-|ment ma vi-||e,|tant|que vi-|vant trop|lon- * gue- *|
 F6 F2 | F4 D4 | !fermata!D8 |: A,8 | A,4 B,4 | A,4 z2 F2 | F2 F2 D2 B,2 | C4 D4 | z2 C4 D2- | %35
w: ment ma|vi- *|e,|ain-|si me|tiens en|pei- ne et lan-|* gueur,|et lan-|
 D2 B,2 C4 | A,8 :| %37
w: |gueur.|
V:3
 c8 | d4 d4 | c4 z2 c2 | c2 A2 B2 d2- | dc c4 B2 | c3 B AG B2- | BAGF G4 | F4 z4 | c8 | d4 d4 | %10
w: Maul-|gré moy|vis et|en vi- vant ie|_ _ _ _|||meurs,|de|iour en|
 c4 z2 c2 | c2 A2 B2 d2- | d2 c4 B2 | c3 B AG B2- | BAGF G4 | F4 z2 c2 | d4 e4 | f4 z2 e2 | f6 f2 | %19
w: iour, ie|chan- ge mes _|_ _ _|dou- * * * *||leurs, tant|que vi-|vant trop|lon- gue-|
 e2 e2 d2 f2- | fedc d4 | c4 z4 | c8 | A4 B4 | G4 z2 G2 | A2 A2 B2 B2 | c3 B c2 d2- | dcBA B4 | %28
w: ment ma vi- *||e,|tant|que vi-|vant trop|lon- gue- ment ma|vi- * * *||
 !fermata!A8 |: c8 | d4 d4 | c4 z2 c2 | c2 A2 B2 d2- | dc c4 B2 | c3 B AG B2- | BAGF G4 | F8 :| %37
w: e,|ain-|si me|tiens en|pei- * * n'et|_ _ lan- *|||gueur.|
V:4
 F,8 | D,4 B,,4 | F,4 z2 F,2 | F,2 F,2 G,4 | A,4 G,4 | z2 F,2 F,2 B,,2 | D,4 C,4 | F,4 z4 | F,8 | %9
w: Maul-|gré moy|vis et|en vi- vant|ie meurs,|et en vi-|vant ie|meurs,|de|
 D,4 B,,4 | F,4 z2 F,2 | F,2 F,2 G,4 | A,4 G,4 | z2 F,4 B,,2 | D,4 C,4 | z2 F,2 G,2 A,2 | %16
w: iour en|iour, ie|chan- ge mes|dou- leurs,|mes _|dou- leurs,|tant que vi-|
 B,3 A, G,F, G,2 | F,4 z2 G,2 | F,2 D,2 F,2 F,2 | C,D,E,F, G,2 F,2 | A,4 G,4 | C,4 z4 | C,8 | %23
w: vant _ _ _ _|_ trop|lon- * * gue-|ment _ _ _ _ ma|vi- *|e,|tant|
 D,4 B,,4 | C,4 z2 C,2 | F,2 D,2 G,2 G,2 | F,6 B,,2 | F,4 G,4 | !fermata!D,8 |: F,8 | D,4 B,,4 | %31
w: que vi-|vant trop|lon- gue- ment ma|vi- *||e,|ain-|si me|
 F,4 z2 F,2 | F,2 F,2 G,4 | A,4 G,4 | z2 F,4 B,,2 | D,4 C,4 | F,8 :| %37
w: tiens en|pei- n'et lan-|* gueur,|en pei-|n'et lan-|gueur.|

